X: 5
T: Daleigh
M: C|
C: Irish Polka
K: G
L: 1/4
Q: 1/4=180
|: "Am" e A B A | e A B A | e A B A | "G" G2 u(B d) |
"Am" e A B A | e A B A  | "G" B e d B | "Am" A2 A2 :|
|: "Am" e d e f | g a g g | e d e f | a2 "G" g2 |
"Am" e d e f | g a g e | "G" d B g B | "Am" A2 A2 :|

% Finnegan's Wake from Jones/Ciembroniewicz.  See 'eastneuk.abc' for Bill
% and Kate versions.
